icons/five_fill.svg

<svg width="48" height="48" viewBox="0 0 48 48" fill="none" xmlns="http://www.w3.org/2000/svg">
<path fill-rule="evenodd" clip-rule="evenodd" d="M34 12C34 10.8954 33.1046 10 32 10H18C17.0466 10 16.2258 10.6729 16.0388 11.6078L14.0388 21.6078C13.8802 22.401 14.215 23.2117 14.8871 23.6618C15.5592 24.1119 16.4363 24.1128 17.1094 23.6641C17.7814 23.2161 20.3955 22 24 22C27.3137 22 30 24.6863 30 28C30 31.3137 27.3137 34 24 34H21.7819C19.9595 34 18.4379 32.8626 17.881 31.3206C17.5058 30.2817 16.3595 29.7437 15.3206 30.1189C14.2817 30.4941 13.7437 31.6405 14.1189 32.6794C15.2453 35.7982 18.2656 38 21.7819 38H24C29.5228 38 34 33.5228 34 28C34 22.4772 29.5228 18 24 18C21.9864 18 20.1847 18.3044 18.6957 18.7194L19.6396 14H32C33.1046 14 34 13.1046 34 12Z" fill="black"/>
</svg>

<svg
  xmlns="http://www.w3.org/2000/svg"
  width="24"
  height="24"
  viewBox="0 0 24 24"
  fill="none"
  stroke="currentColor"
  stroke-width="2"
  stroke-linecap="round"
  stroke-linejoin="round"
>
  <path
    fill-rule="evenodd"
    d="M34 12a2 2 0 0 0-2-2H18a2 2 0 0 0-1.961 1.608l-2 10a2 2 0 0 0 3.07 2.056C17.781 23.216 20.395 22 24 22a6 6 0 0 1 0 12h-2.218c-1.823 0-3.344-1.137-3.901-2.68a2 2 0 1 0-3.762 1.36c1.126 3.118 4.147 5.32 7.663 5.32H24c5.523 0 10-4.477 10-10s-4.477-10-10-10c-2.014 0-3.815.304-5.304.72L19.64 14H32a2 2 0 0 0 2-2"
    clip-rule="evenodd"
  />
</svg>
